X:1
T:Martian March
C:copyright 2003 Kaubells
R:Reel
M:C
K:DDor
|:"Dm"a2d2 "Em"defg|"F"a2d2 d2 (3fgf|"C"e2c2 A2c2|"(Am)"G2c2 E2c2|
"Dm"a2d2 "C"defg|"Bb"a2d2 d2 (3fgf|"Am"e2c2 A2c2|"Dm"d4 D4:|
|:"A7"^cdeA a2g2|"G7"fgaf d2 (3fgf|"A7"e2B^c a2g2|"G9"f4 z4|
"A7"AB^cA a2g2|"G7"fgaf d2 (3fgf|1"A7"e2B^c a2g2|"D"^f4 z4:|2"Em"edBd e2g2|"A7"a4 z4||
T:Last time only
"A7"AB^cA a2g2|"G7"fgaf d2 (3fgf|"Em"edge "A7"a2^c'2|"Dm"d'4 [f4d'4]|]
